X: 102
T: Buffalo Society Song (b)
C: Teton Sioux band 1911-1914
N: Derived from sioux102.krn
O: South Dakota, U.S.A.
N: Teton Sioux Music by Frances Densmore, 1918
Z: transcribed to **kern format by Craig Sapp
L: 1/8
M: 2/4
Q: 1/4=58
K: G clef=treble
%%linebreak <none>
F2E/ E F/ [I:setbarnb 2]| 
E< D D/ B,3/ | 
F2E/ E F/ | 
E< D D/ B,3/ ||  
[M:3/4]B,< B,A,3D | 
D< B, B, B, A,3/ B,/ ||  
[M:2/4]B,2A,3/ A,/ | 
A,4 | 
D< D D/ B,3/ | 
F2E/ E F/ | 
E< D D/ B,3/ | 
F2E/ E F/ | 
E< D D/ B,3/ ||  
[M:3/4]B,< B,A,3D | 
D< B, B, B, A,3/ B,/ ||  
[M:2/4]B,2A,3/ A,/ | 
A,4 |]  



